docs/img/animated-gopher.svg

<svg class="gopher" viewBox="0 -150 1200 1700" fill="none" xmlns="http://www.w3.org/2000/svg"><style>.gopher{height:10rem;width:10rem}.gopher-animation,.left-arm,.right-arm,.right-foot,.left-foot,.belly,.shadow,.left-eye,.right-eye,.mouth,.tongue{animation-duration:4s;animation-iteration-count:infinite;animation-timing-function:linear}.left-eye,.right-eye{animation-name:blink}@keyframes blink{0%,18%,100%{visibility:hidden}15%{visibility:visible}}.mouth,.tongue{animation-name:shout}@keyframes shout{0%,18%,100%{visibility:hidden}10%{visibility:visible}}.gopher-animation{animation-name:jump}@keyframes jump{0%,15%,100%{transform:translateY(0)}6%{transform:translateY(5%)}12%{transform:translateY(-30%)}}.right-arm{animation-name:rotateRightArm;transform-box:fill-box}@keyframes rotateRightArm{0%,6%,18%,100%{transform:rotate(0)}13%{transform:rotate(-120deg)translateX(-50%)}}.left-arm{animation-name:rotateLeftArm;transform-box:fill-box;transform-origin:top right}@keyframes rotateLeftArm{0%,6%,18%,100%{transform:rotate(0)}13%{transform:rotate(120deg)translateX(50%)}}.right-foot{animation-name:bendRightFoot;transform-origin:top left}@keyframes bendRightFoot{0%,15%,100%{transform:translateY(0)}6%{transform:translateY(-3%)}12%{transform:translateY(5%)rotate(-5deg)}}.left-foot{animation-name:bendLeftFoot;transform-origin:top right}@keyframes bendLeftFoot{0%,15%,100%{transform:translateY(0)}6%{transform:translateY(-3%)}12%{transform:translateY(5%)rotate(5deg)}}.belly{animation-name:bounce}@keyframes bounce{0%,10%,15%,18%,100%{transform:translateY(0)}6%{transform:translateY(1%)}12%{transform:translateY(-2%)}16%{transform:translateY(1%)}}.shadow{animation-name:scaleShadow;transform-origin:center center;transform:scaleX(1)}@keyframes scaleShadow{0%,8%,15%,100%{transform:scaleX(1)}12%{transform:scaleX(.65)}}</style><ellipse class="shadow" cx="626" cy="1460" rx="280" ry="50" fill="#9b80b4"/><g class="gopher-animation"><path fill-rule="evenodd" clip-rule="evenodd" d="M336.843 527.661C315.681 486.87 305.448 404.203 336.843 387.475c31.396-16.728 85.879 12.614 107.041 53.404C465.047 481.669 464.797 523.3 433.402 540.028 402.007 556.756 358.006 568.451 336.843 527.661z" fill="#a0c6e0" stroke="#675243" stroke-width="5"/><path fill-rule="evenodd" clip-rule="evenodd" d="M360.931 498.7c-12.028-21.067-17.844-63.764.0-72.404C378.774 417.657 409.739 432.811 421.767 453.879 433.795 474.946 433.653 496.448 415.809 505.087 397.966 513.727 372.958 519.768 360.931 498.7z" fill="#c2dfe7"/><path fill-rule="evenodd" clip-rule="evenodd" d="M769.62 479.414c25.811-37.942 93.292-85.531 122.495-65.129C921.318 434.688 920.991 497.214 895.18 535.156 869.369 573.098 832.877 592.215 803.674 571.812s-59.865-54.456-34.054-92.398z" fill="#a0c6e0" stroke="#675243" stroke-width="5"/><path fill-rule="evenodd" clip-rule="evenodd" d="M810.602 477.327C824.879 457.169 862.205 431.886 878.359 442.725 894.512 453.565 894.331 486.783 880.054 506.941 865.777 527.099 845.591 537.255 829.438 526.416 813.285 515.576 796.324 497.484 810.602 477.327z" fill="#c2dfe7"/><g class="arms"><path class="left-arm" fill-rule="evenodd" clip-rule="evenodd" d="M222.749 1121.94C200.687 1108.9 196.476 1046.08 213.345 981.617 230.214 917.157 261.774 875.472 283.836 888.513 305.898 901.554 310.108 964.381 293.24 1028.84 276.371 1093.3 244.811 1134.99 222.749 1121.94z" fill="#cba992" stroke="#675243" stroke-width="5"/><path class="right-arm" fill-rule="evenodd" clip-rule="evenodd" d="M943.415 887.807C971.105 892.431 1004.6 948.751 1018.23 1013.6 1031.87 1078.45 1020.47 1127.27 992.784 1122.65 965.091 1118.02 931.594 1061.71 917.962 996.855 904.33 932.006 915.726 883.183 943.415 887.807z" fill="#cba992" stroke="#675243" stroke-width="5"/></g><path fill-rule="evenodd" clip-rule="evenodd" d="M315.625 747.824c0-124.816 134.986-226 301.5-226s301.5 101.184 301.5 226c0 124.816-134.986 226-301.5 226s-301.5-101.184-301.5-226z" fill="#91bae0" stroke="#91bae0" stroke-width="8" stroke-linecap="round" stroke-linejoin="round"/><g><path class="right-foot" fill-rule="evenodd" clip-rule="evenodd" d="M758.781 1179.38C791.125 1173.99 826.379 1226.72 837.523 1297.17 848.666 1367.62 831.48 1429.11 799.136 1434.5 766.791 1439.9 731.538 1387.15 720.395 1316.7 709.251 1246.25 726.438 1184.77 758.781 1179.38z" fill="#cba992" stroke="#675243" stroke-width="5"/><path class="left-foot" fill-rule="evenodd" clip-rule="evenodd" d="M466.881 1162.04C499.583 1163.72 523.261 1222.91 519.767 1294.25 516.272 1365.59 486.929 1422.06 454.227 1420.38 421.525 1418.69 397.847 1359.5 401.342 1288.16 404.835 1216.83 434.179 1160.36 466.881 1162.04z" fill="#cba992" stroke="#675243" stroke-width="5"/></g><path fill-rule="evenodd" clip-rule="evenodd" d="M256.591 922.566c0-116.728-26.215-235.882 16.468-317.087 53.538-101.858 218.376-161.881 345.552-161.881 118.12.0 232.083 45.793 293.399 133.51C969.341 659.125 961.413 777.054 961.413 904.208c0 124.632 27.155 260.542-27.995 348.802C872.125 1351.09 760.602 1369.83 640.291 1369.83c-144.051.0-303.869-69.53-354.058-200.27-29.446-76.71-29.642-149.69-29.642-246.994z" fill="#a0c6e0" stroke="#675243" stroke-width="5"/><path fill-rule="evenodd" clip-rule="evenodd" d="M252.625 704.326c0-84.975 66.734-153.861 149.054-153.861 82.321.0 149.055 68.886 149.055 153.861S484 858.187 401.679 858.187c-82.32.0-149.054-68.886-149.054-153.861z" fill="#fff" stroke="#675243" stroke-width="5"/><path fill-rule="evenodd" clip-rule="evenodd" d="M638.625 704.326c0-84.975 66.734-153.861 149.054-153.861 82.321.0 149.055 68.886 149.055 153.861S870 858.187 787.679 858.187C705.359 858.187 638.625 789.301 638.625 704.326z" fill="#fff" stroke="#675243" stroke-width="5"/><path fill-rule="evenodd" clip-rule="evenodd" d="M562.239 754.924C562.633 745.254 573.975 742.057 595.69 742.975 617.405 743.894 626.667 751.302 626.273 760.971 625.88 770.641 616.25 772.24 594.536 771.322 572.821 770.404 561.845 764.593 562.239 754.924z" fill="#2a2a2a" stroke="#2a2a2a" stroke-width="5"/><path class="mouth" fill-rule="evenodd" clip-rule="evenodd" d="M539.625 873.56c0-33.5429999999999 23.641-60.736 52.803-60.736S645.231 840.017 645.231 873.56C645.231 907.104 621.59 934.296 592.428 934.296S539.625 907.104 539.625 873.56z" fill="#2a2a2a" stroke="#2a2a2a" stroke-width="8"/><path opacity=".936" fill-rule="evenodd" clip-rule="evenodd" d="M570.23 818.605 589.328 817.582 589.57 866.159 570.472 867.181 570.23 818.605z" fill="#fff"/><path opacity=".936" fill-rule="evenodd" clip-rule="evenodd" d="M595.002 818.32 614.1 817.297 614.343 865.874 595.245 866.896 595.002 818.32z" fill="#fff"/><path class="tongue" fill-rule="evenodd" clip-rule="evenodd" d="M564.195 897.419C564.195 886.911 582.691 888.637 599.371 888.637 616.05 888.637 624.953 892.765 624.953 903.274c0 10.508-15.298 23.418-31.978 23.418-16.679.0-28.78-18.764-28.78-29.273z" fill="#cc4452"/><path fill-rule="evenodd" clip-rule="evenodd" d="M544.971 796.261C547.106 778.075 570.639 768.322 599.766 771.756 629.966 775.317 649.785 787.939 647.65 806.125 646.43 816.517 640.772 830.207 628.853 830.168 619.912 830.139 606.331 817.835 594.612 815.662 584.825 813.847 568.566 824.64 561.212 822.294 548.019 818.086 543.6 807.938 544.971 796.261z" fill="#cba992" stroke="#675243" stroke-width="5"/><path opacity=".936" fill-rule="evenodd" clip-rule="evenodd" d="M327.625 763.965c0-17.9730000000001 14.598-32.543 32.606-32.543S392.838 745.992 392.838 763.965c0 17.973-14.599 32.543-32.607 32.543S327.625 781.938 327.625 763.965z" fill="#262626" stroke="#262626" stroke-width="30"/><path opacity=".936" fill-rule="evenodd" clip-rule="evenodd" d="M713.625 763.965c0-17.9730000000001 14.598-32.543 32.606-32.543S778.838 745.992 778.838 763.965c0 17.973-14.5989999999999 32.543-32.607 32.543S713.625 781.938 713.625 763.965z" fill="#262626" stroke="#262626" stroke-width="30"/><path class="belly" fill-rule="evenodd" clip-rule="evenodd" d="M394.625 1114.02c0-94.86 74.646-97.78 216.285-90.89C754.74 1030.12 848.824 1050.62 848.824 1145.48 848.824 1240.34 778.649 1302.8 636.865 1302.8S394.625 1208.88 394.625 1114.02z" fill="#c2dfe7"/><path opacity=".936" fill-rule="evenodd" clip-rule="evenodd" d="M353.625 736.636C353.625 732.311 359.778 728.805 367.369 728.805 374.959 728.805 381.112 732.311 381.112 736.636 381.112 740.96 374.959 744.466 367.369 744.466 359.778 744.466 353.625 740.96 353.625 736.636z" fill="#fff"/><path opacity=".936" fill-rule="evenodd" clip-rule="evenodd" d="M739.625 736.636C739.625 732.311 745.778 728.805 753.369 728.805 760.959 728.805 767.112 732.311 767.112 736.636 767.112 740.96 760.959 744.466 753.369 744.466 745.778 744.466 739.625 740.96 739.625 736.636z" fill="#fff"/><g class="eyes"><path class="left-eye" fill-rule="evenodd" clip-rule="evenodd" d="M252.125 703.326c0-84.975 66.734-153.861 149.054-153.861 82.321.0 149.055 68.886 149.055 153.861S483.5 857.187 401.179 857.187c-82.32.0-149.054-68.886-149.054-153.861z" fill="#a0c6e0" stroke="#675243" stroke-width="5"/><path class="left-eye" d="M253.293 699.822c45.289-55.846 239.283-47.164 297.442.0" stroke="#675243" stroke-width="5"/><path class="right-eye" fill-rule="evenodd" clip-rule="evenodd" d="M638.625 705.275c0-84.975 66.734-153.861 149.054-153.861 82.321.0 149.055 68.886 149.055 153.861S870 859.136 787.679 859.136C705.359 859.136 638.625 790.25 638.625 705.275z" fill="#a0c6e0" stroke="#675243" stroke-width="5"/><path class="right-eye" d="M639.293 699.822c45.289-55.846 239.283-47.164 297.442.0" stroke="#675243" stroke-width="5"/></g></g></svg>

<svg class="gopher" viewBox="0 -150 1200 1700" fill="none" xmlns="http://www.w3.org/2000/svg"><style>.gopher{height:10rem;width:10rem}.gopher-animation,.left-arm,.right-arm,.right-foot,.left-foot,.belly,.shadow,.left-eye,.right-eye,.mouth,.tongue{animation-duration:4s;animation-iteration-count:infinite;animation-timing-function:linear}.left-eye,.right-eye{animation-name:blink}@keyframes blink{0%,18%,100%{visibility:hidden}15%{visibility:visible}}.mouth,.tongue{animation-name:shout}@keyframes shout{0%,18%,100%{visibility:hidden}10%{visibility:visible}}.gopher-animation{animation-name:jump}@keyframes jump{0%,15%,100%{transform:translateY(0)}6%{transform:translateY(5%)}12%{transform:translateY(-30%)}}.right-arm{animation-name:rotateRightArm;transform-box:fill-box}@keyframes rotateRightArm{0%,6%,18%,100%{transform:rotate(0deg)}13%{transform:rotate(-120deg) translateX(-50%)}}.left-arm{animation-name:rotateLeftArm;transform-box:fill-box;transform-origin:top right}@keyframes rotateLeftArm{0%,6%,18%,100%{transform:rotate(0deg)}13%{transform:rotate(120deg) translateX(50%)}}.right-foot{animation-name:bendRightFoot;transform-origin:top left}@keyframes bendRightFoot{0%,15%,100%{transform:translateY(0)}6%{transform:translateY(-3%)}12%{transform:translateY(5%) rotate(-5deg)}}.left-foot{animation-name:bendLeftFoot;transform-origin:top right}@keyframes bendLeftFoot{0%,15%,100%{transform:translateY(0)}6%{transform:translateY(-3%)}12%{transform:translateY(5%) rotate(5deg)}}.belly{animation-name:bounce}@keyframes bounce{0%,10%,15%,18%,100%{transform:translateY(0)}6%{transform:translateY(1%)}12%{transform:translateY(-2%)}16%{transform:translateY(1%)}}.shadow{animation-name:scaleShadow;transform-origin:center center;transform:scaleX(1)}@keyframes scaleShadow{0%,8%,15%,100%{transform:scaleX(1)}12%{transform:scaleX(0.65)}}</style><ellipse class="shadow" cx="626" cy="1460" rx="280" ry="50" fill="#9b80b4"/><g class="gopher-animation"><path fill-rule="evenodd" clip-rule="evenodd" d="M336.843 527.661C315.681 486.87 305.448 404.203 336.843 387.475 368.239 370.747 422.722 400.089 443.884 440.879 465.047 481.669 464.797 523.3 433.402 540.028 402.007 556.756 358.006 568.451 336.843 527.661z" fill="#a0c6e0" stroke="#675243" stroke-width="5"/><path fill-rule="evenodd" clip-rule="evenodd" d="M360.931 498.7C348.903 477.633 343.087 434.936 360.931 426.296 378.774 417.657 409.739 432.811 421.767 453.879 433.795 474.946 433.653 496.448 415.809 505.087 397.966 513.727 372.958 519.768 360.931 498.7z" fill="#c2dfe7"/><path fill-rule="evenodd" clip-rule="evenodd" d="M769.62 479.414C795.431 441.472 862.912 393.883 892.115 414.285 921.318 434.688 920.991 497.214 895.18 535.156 869.369 573.098 832.877 592.215 803.674 571.812S743.809 517.356 769.62 479.414z" fill="#a0c6e0" stroke="#675243" stroke-width="5"/><path fill-rule="evenodd" clip-rule="evenodd" d="M810.602 477.327C824.879 457.169 862.205 431.886 878.359 442.725 894.512 453.565 894.331 486.783 880.054 506.941 865.777 527.099 845.591 537.255 829.438 526.416 813.285 515.576 796.324 497.484 810.602 477.327z" fill="#c2dfe7"/><g class="arms"><path class="left-arm" fill-rule="evenodd" clip-rule="evenodd" d="M222.749 1121.94C200.687 1108.9 196.476 1046.08 213.345 981.617 230.214 917.157 261.774 875.472 283.836 888.513 305.898 901.554 310.108 964.381 293.24 1028.84 276.371 1093.3 244.811 1134.99 222.749 1121.94z" fill="#cba992" stroke="#675243" stroke-width="5"/><path class="right-arm" fill-rule="evenodd" clip-rule="evenodd" d="M943.415 887.807C971.105 892.431 1004.6 948.751 1018.23 1013.6 1031.87 1078.45 1020.47 1127.27 992.784 1122.65 965.091 1118.02 931.594 1061.71 917.962 996.855 904.33 932.006 915.726 883.183 943.415 887.807z" fill="#cba992" stroke="#675243" stroke-width="5"/></g><path fill-rule="evenodd" clip-rule="evenodd" d="M315.625 747.824c0-124.81599999999992 134.986-226 301.5-226S918.625 623.008 918.625 747.824c0 124.81600000000003-134.986 226-301.5 226S315.625 872.64 315.625 747.824z" fill="#91bae0" stroke="#91bae0" stroke-width="8" stroke-linecap="round" stroke-linejoin="round"/><g><path class="right-foot" fill-rule="evenodd" clip-rule="evenodd" d="M758.781 1179.38C791.125 1173.99 826.379 1226.72 837.523 1297.17 848.666 1367.62 831.48 1429.11 799.136 1434.5 766.791 1439.9 731.538 1387.15 720.395 1316.7 709.251 1246.25 726.438 1184.77 758.781 1179.38z" fill="#cba992" stroke="#675243" stroke-width="5"/><path class="left-foot" fill-rule="evenodd" clip-rule="evenodd" d="M466.881 1162.04C499.583 1163.72 523.261 1222.91 519.767 1294.25 516.272 1365.59 486.929 1422.06 454.227 1420.38 421.525 1418.69 397.847 1359.5 401.342 1288.16 404.835 1216.83 434.179 1160.36 466.881 1162.04z" fill="#cba992" stroke="#675243" stroke-width="5"/></g><path fill-rule="evenodd" clip-rule="evenodd" d="M256.591 922.566C256.591 805.838 230.376 686.684 273.059 605.479 326.597 503.621 491.435 443.598 618.611 443.598 736.731 443.598 850.694 489.391 912.01 577.108 969.341 659.125 961.413 777.054 961.413 904.208 961.413 1028.84 988.568 1164.75 933.418 1253.01 872.125 1351.09 760.602 1369.83 640.291 1369.83 496.24 1369.83 336.422 1300.3 286.233 1169.56 256.787 1092.85 256.591 1019.87 256.591 922.566z" fill="#a0c6e0" stroke="#675243" stroke-width="5"/><path fill-rule="evenodd" clip-rule="evenodd" d="M252.625 704.326C252.625 619.351 319.359 550.465 401.679 550.465 484 550.465 550.734 619.351 550.734 704.326S484 858.187 401.679 858.187C319.359 858.187 252.625 789.301 252.625 704.326z" fill="#fff" stroke="#675243" stroke-width="5"/><path fill-rule="evenodd" clip-rule="evenodd" d="M638.625 704.326C638.625 619.351 705.359 550.465 787.679 550.465 870 550.465 936.734 619.351 936.734 704.326S870 858.187 787.679 858.187C705.359 858.187 638.625 789.301 638.625 704.326z" fill="#fff" stroke="#675243" stroke-width="5"/><path fill-rule="evenodd" clip-rule="evenodd" d="M562.239 754.924C562.633 745.254 573.975 742.057 595.69 742.975 617.405 743.894 626.667 751.302 626.273 760.971 625.88 770.641 616.25 772.24 594.536 771.322 572.821 770.404 561.845 764.593 562.239 754.924z" fill="#2a2a2a" stroke="#2a2a2a" stroke-width="5"/><path class="mouth" fill-rule="evenodd" clip-rule="evenodd" d="M539.625 873.56C539.625 840.017 563.266 812.824 592.428 812.824S645.231 840.017 645.231 873.56C645.231 907.104 621.59 934.296 592.428 934.296S539.625 907.104 539.625 873.56z" fill="#2a2a2a" stroke="#2a2a2a" stroke-width="8"/><path opacity=".936" fill-rule="evenodd" clip-rule="evenodd" d="M570.23 818.605 589.328 817.582 589.57 866.159 570.472 867.181 570.23 818.605z" fill="#fff"/><path opacity=".936" fill-rule="evenodd" clip-rule="evenodd" d="M595.002 818.32 614.1 817.297 614.343 865.874 595.245 866.896 595.002 818.32z" fill="#fff"/><path class="tongue" fill-rule="evenodd" clip-rule="evenodd" d="M564.195 897.419C564.195 886.911 582.691 888.637 599.371 888.637 616.05 888.637 624.953 892.765 624.953 903.274 624.953 913.782 609.655 926.692 592.975 926.692 576.296 926.692 564.195 907.928 564.195 897.419z" fill="#cc4452"/><path fill-rule="evenodd" clip-rule="evenodd" d="M544.971 796.261C547.106 778.075 570.639 768.322 599.766 771.756 629.966 775.317 649.785 787.939 647.65 806.125 646.43 816.517 640.772 830.207 628.853 830.168 619.912 830.139 606.331 817.835 594.612 815.662 584.825 813.847 568.566 824.64 561.212 822.294 548.019 818.086 543.6 807.938 544.971 796.261z" fill="#cba992" stroke="#675243" stroke-width="5"/><path opacity=".936" fill-rule="evenodd" clip-rule="evenodd" d="M327.625 763.965C327.625 745.992 342.223 731.422 360.231 731.422S392.838 745.992 392.838 763.965C392.838 781.938 378.239 796.508 360.231 796.508S327.625 781.938 327.625 763.965z" fill="#262626" stroke="#262626" stroke-width="30"/><path opacity=".936" fill-rule="evenodd" clip-rule="evenodd" d="M713.625 763.965C713.625 745.992 728.223 731.422 746.231 731.422S778.838 745.992 778.838 763.965C778.838 781.938 764.239 796.508 746.231 796.508S713.625 781.938 713.625 763.965z" fill="#262626" stroke="#262626" stroke-width="30"/><path class="belly" fill-rule="evenodd" clip-rule="evenodd" d="M394.625 1114.02C394.625 1019.16 469.271 1016.24 610.91 1023.13 754.74 1030.12 848.824 1050.62 848.824 1145.48 848.824 1240.34 778.649 1302.8 636.865 1302.8S394.625 1208.88 394.625 1114.02z" fill="#c2dfe7"/><path opacity=".936" fill-rule="evenodd" clip-rule="evenodd" d="M353.625 736.636C353.625 732.311 359.778 728.805 367.369 728.805 374.959 728.805 381.112 732.311 381.112 736.636 381.112 740.96 374.959 744.466 367.369 744.466 359.778 744.466 353.625 740.96 353.625 736.636z" fill="#fff"/><path opacity=".936" fill-rule="evenodd" clip-rule="evenodd" d="M739.625 736.636C739.625 732.311 745.778 728.805 753.369 728.805 760.959 728.805 767.112 732.311 767.112 736.636 767.112 740.96 760.959 744.466 753.369 744.466 745.778 744.466 739.625 740.96 739.625 736.636z" fill="#fff"/><g class="eyes"><path class="left-eye" fill-rule="evenodd" clip-rule="evenodd" d="M252.125 703.326C252.125 618.351 318.859 549.465 401.179 549.465 483.5 549.465 550.234 618.351 550.234 703.326S483.5 857.187 401.179 857.187C318.859 857.187 252.125 788.301 252.125 703.326z" fill="#a0c6e0" stroke="#675243" stroke-width="5"/><path class="left-eye" d="M253.293 699.822C298.582 643.976 492.576 652.658 550.735 699.822" stroke="#675243" stroke-width="5"/><path class="right-eye" fill-rule="evenodd" clip-rule="evenodd" d="M638.625 705.275C638.625 620.3 705.359 551.414 787.679 551.414 870 551.414 936.734 620.3 936.734 705.275S870 859.136 787.679 859.136C705.359 859.136 638.625 790.25 638.625 705.275z" fill="#a0c6e0" stroke="#675243" stroke-width="5"/><path class="right-eye" d="M639.293 699.822C684.582 643.976 878.576 652.658 936.735 699.822" stroke="#675243" stroke-width="5"/></g></g></svg>
